img/logo-footer.svg

<svg width="79" height="70" viewBox="0 0 79 70" fill="none" xmlns="http://www.w3.org/2000/svg">
<path d="M9.42908 63.4795H8.11958L7.91708 61.792H1.84208L1.63958 63.4795H0.330078V60.145H1.32908C1.39208 60.046 1.49558 59.8255 1.63958 59.4835C1.78358 59.1415 1.92758 58.66 2.07158 58.039C2.21558 57.409 2.33708 56.626 2.43608 55.69C2.53508 54.745 2.58008 53.629 2.57108 52.342H8.22758V60.145H9.42908V63.4795ZM6.37808 60.145V53.989H4.28558C4.23158 55.591 4.10108 56.905 3.89408 57.931C3.69608 58.948 3.49358 59.686 3.28658 60.145H6.37808ZM25.1216 52.342H30.7241V53.989H26.9711V56.1895H30.3866V57.8365H26.9711V60.145H30.7916V61.792H25.1216V52.342ZM53.5318 53.989H50.7778V61.792H48.9283V53.989H46.1608V52.342H53.5318V53.989ZM74.6506 56.554L74.7586 55.3255H74.6911L74.0566 56.5945L70.5331 61.792H69.1426V52.342H70.9921V57.4855L70.8571 58.7545H70.9381L71.5996 57.445L75.1231 52.342H76.5001V61.792H74.6506V56.554Z" fill="white"/>
<path d="M12.3712 18.2975H18.3425L12.1985 0.791992H6.44935L0.330078 18.2975H6.22728L6.96752 15.4216H11.6063L12.3712 18.2975ZM8.02852 11.4203L9.28692 6.61881L10.5453 11.4203H8.02852Z" fill="white"/>
<path d="M19.3285 18.2975H24.6828V11.7204C24.6828 10.1199 25.5958 9.29465 27.0516 9.29465C27.9646 9.29465 28.6554 9.51972 28.9515 9.69477L28.7048 5.31841C28.5321 5.16836 28.0139 4.99331 27.2983 4.99331C26.1386 4.99331 25.201 5.64351 24.6828 6.5688L24.1894 5.2934H19.3285V18.2975Z" fill="white"/>
<path d="M36.1264 18.5976C37.6562 18.5976 39.0873 18.2224 39.7536 17.9474L40.4444 13.7961C39.8276 14.0711 38.5445 14.4213 37.3848 14.4213C35.7069 14.4213 34.9914 13.696 34.9914 11.8705C34.9914 9.84482 35.6576 9.06958 37.1874 9.06958C38.2978 9.06958 39.5068 9.4697 40.1237 9.7698L39.8769 5.64351C39.186 5.36842 37.7056 4.99331 36.1264 4.99331C31.6357 4.99331 29.6123 7.24401 29.6123 11.8705C29.6123 16.3969 31.6357 18.5976 36.1264 18.5976Z" fill="white"/>
<path d="M50.1313 14.3462C49.0456 14.3462 48.4288 13.9711 48.4288 12.7707V8.91953H51.5871V5.2934H48.4288V1.54223L43.0744 2.54254V5.2934H41.2238V8.91953H43.0744V13.0208C43.0744 16.897 45.0237 18.5725 48.2067 18.5725C49.5144 18.5725 50.6988 18.2725 51.2417 18.0474L51.9572 13.9711C51.5871 14.1212 50.8469 14.3462 50.1313 14.3462Z" fill="white"/>
<path d="M53.3214 3.79293H58.6758V0.791992H53.3214V3.79293ZM53.3214 18.2975H58.6758V5.2934H53.3214V18.2975Z" fill="white"/>
<path d="M66.9387 18.5976C68.4685 18.5976 69.8996 18.2224 70.5658 17.9474L71.2567 13.7961C70.6399 14.0711 69.3568 14.4213 68.1971 14.4213C66.5192 14.4213 65.8037 13.696 65.8037 11.8705C65.8037 9.84482 66.4699 9.06958 67.9997 9.06958C69.11 9.06958 70.3191 9.4697 70.936 9.7698L70.6892 5.64351C69.9983 5.36842 68.5179 4.99331 66.9387 4.99331C62.4479 4.99331 60.4246 7.24401 60.4246 11.8705C60.4246 16.3969 62.4479 18.5976 66.9387 18.5976Z" fill="white"/>
<path d="M15.6036 40.4919L12.5439 33.8898C14.1478 32.9145 14.9374 31.239 14.9374 28.9633C14.9374 25.2121 12.84 22.9864 8.44798 22.9864H0.330078V40.4919H5.95586V34.8401H7.33763L9.53366 40.4919H15.6036ZM5.95586 27.4878H7.92982C8.86745 27.4878 9.31159 28.038 9.31159 29.0133C9.31159 29.9886 8.86745 30.5388 7.92982 30.5388H5.95586V27.4878Z" fill="white"/>
<path d="M20.5807 40.792C22.1352 40.792 23.2209 40.1918 24.1585 39.2165L24.652 40.4919H29.5129V27.4878H24.1585V35.5153C24.1585 36.2906 23.8871 36.6907 23.2209 36.6907C22.5053 36.6907 22.2832 36.2906 22.2832 35.5153V27.4878H16.9289V36.9658C16.9289 39.1915 18.1379 40.792 20.5807 40.792Z" fill="white"/>
<path d="M36.5923 40.742C41.0584 40.742 42.6869 39.2665 42.6869 36.5157C42.6869 34.0149 41.6506 32.7395 39.2325 32.2643L37.4313 31.9142C36.6417 31.7642 36.469 31.6141 36.469 31.314C36.469 31.0389 36.691 30.8889 37.2832 30.8889C39.2078 30.8889 41.1078 31.4141 41.996 31.8142L41.774 28.038C40.935 27.6879 39.0844 27.2378 37.0365 27.2378C33.1872 27.2378 31.4107 28.7382 31.4107 31.4141C31.4107 33.8648 32.373 35.0902 34.9391 35.6154L36.765 35.9905C37.5053 36.1155 37.6533 36.2656 37.6533 36.5407C37.6533 36.8408 37.4066 37.0158 36.7404 37.0158C34.4703 37.0158 32.299 36.3906 31.312 35.9405L31.9535 39.9917C32.8418 40.3168 34.7171 40.742 36.5923 40.742Z" fill="white"/>
<path d="M49.2727 40.742C53.7388 40.742 55.3673 39.2665 55.3673 36.5157C55.3673 34.0149 54.331 32.7395 51.9129 32.2643L50.1116 31.9142C49.322 31.7642 49.1493 31.6141 49.1493 31.314C49.1493 31.0389 49.3714 30.8889 49.9636 30.8889C51.8882 30.8889 53.7881 31.4141 54.6764 31.8142L54.4543 28.038C53.6154 27.6879 51.7648 27.2378 49.7168 27.2378C45.8676 27.2378 44.0911 28.7382 44.0911 31.4141C44.0911 33.8648 45.0534 35.0902 47.6195 35.6154L49.4454 35.9905C50.1857 36.1155 50.3337 36.2656 50.3337 36.5407C50.3337 36.8408 50.087 37.0158 49.4207 37.0158C47.1507 37.0158 44.9793 36.3906 43.9924 35.9405L44.6339 39.9917C45.5222 40.3168 47.3974 40.742 49.2727 40.742Z" fill="white"/>
<path d="M57.0922 25.9874H62.4466V22.9864H57.0922V25.9874ZM57.0922 40.4919H62.4466V27.4878H57.0922V40.4919Z" fill="white"/>
<path d="M67.9706 40.792C69.7965 40.792 70.9068 39.8917 71.2276 39.2165L71.7211 40.4919H76.4093V32.4644C76.4093 29.1383 74.5093 27.2378 70.1419 27.2378C68.316 27.2378 66.6382 27.4878 65.8732 27.6879L65.1824 31.8142C65.9473 31.5391 67.5264 31.189 69.0316 31.189C70.6354 31.189 71.2276 31.5141 71.2276 32.4144V32.4644H68.8342C65.6758 32.4644 64.0967 33.9899 64.0967 36.6157C64.0967 39.2165 65.4044 40.792 67.9706 40.792ZM70.0186 37.1909C69.3277 37.1909 68.8835 36.8908 68.8835 36.1155C68.8835 35.3653 69.2783 35.0152 70.0186 35.0152H71.2276V35.9655C71.2276 36.8658 70.7588 37.1909 70.0186 37.1909Z" fill="white"/>
</svg>

<svg width="79" height="70" fill="none" xmlns="http://www.w3.org/2000/svg"><path d="M9.43 63.48H8.12l-.203-1.688H1.842L1.64 63.48H.33v-3.335h1a5.77 5.77 0 00.31-.662c.144-.341.288-.823.432-1.444.144-.63.265-1.413.364-2.349.1-.945.144-2.061.135-3.348h5.657v7.803h1.201v3.334zm-3.052-3.335v-6.156H4.286c-.054 1.602-.185 2.916-.392 3.942-.198 1.017-.4 1.755-.607 2.214h3.091zm18.744-7.803h5.602v1.647h-3.753v2.2h3.416v1.648H26.97v2.308h3.82v1.647h-5.67v-9.45zm28.41 1.647h-2.754v7.803h-1.85v-7.803h-2.767v-1.647h7.37v1.647zm21.119 2.565l.108-1.229h-.068l-.634 1.27-3.524 5.197h-1.39v-9.45h1.85v5.144l-.136 1.269h.081l.662-1.31 3.523-5.103H76.5v9.45h-1.85v-5.238zm-62.28-38.257h5.972L12.198.793H6.45L.33 18.297h5.897l.74-2.875h4.64l.764 2.875zM8.03 11.42l1.257-4.8 1.258 4.801H8.03zm11.298 6.877h5.355V11.72c0-1.6.913-2.425 2.369-2.425.913 0 1.603.225 1.9.4l-.247-4.377c-.173-.15-.691-.325-1.407-.325-1.16 0-2.097.65-2.615 1.576l-.494-1.276h-4.86v13.005zm16.798.301c1.53 0 2.961-.376 3.628-.65l.69-4.152c-.616.275-1.9.625-3.06.625-1.677 0-2.393-.725-2.393-2.55 0-2.026.667-2.801 2.196-2.801 1.11 0 2.32.4 2.937.7l-.247-4.126c-.691-.276-2.171-.65-3.75-.65-4.491 0-6.515 2.25-6.515 6.877 0 4.526 2.024 6.727 6.514 6.727zm14.005-4.252c-1.085 0-1.702-.375-1.702-1.575V8.92h3.158V5.293H48.43v-3.75l-5.355 1v2.75h-1.85V8.92h1.85v4.1c0 3.877 1.95 5.553 5.133 5.553 1.307 0 2.492-.3 3.035-.526l.715-4.076c-.37.15-1.11.375-1.826.375zm3.19-10.553h5.355V.792H53.32v3zm0 14.505h5.355V5.292H53.32v13.005zm13.618.3c1.53 0 2.96-.376 3.627-.65l.69-4.152c-.616.275-1.9.625-3.059.625-1.678 0-2.393-.725-2.393-2.55 0-2.026.666-2.801 2.196-2.801 1.11 0 2.32.4 2.936.7l-.247-4.126c-.69-.276-2.171-.65-3.75-.65-4.491 0-6.514 2.25-6.514 6.877 0 4.526 2.023 6.727 6.514 6.727zM15.604 40.492l-3.06-6.602c1.604-.976 2.393-2.651 2.393-4.927 0-3.75-2.097-5.977-6.489-5.977H.33v17.506h5.626V34.84h1.382l2.196 5.652h6.07zM5.956 27.488H7.93c.937 0 1.382.55 1.382 1.525 0 .976-.445 1.526-1.382 1.526H5.956v-3.051zM20.58 40.792c1.555 0 2.64-.6 3.579-1.575l.493 1.275h4.86V27.488h-5.354v8.027c0 .776-.27 1.176-.937 1.176-.716 0-.938-.4-.938-1.176v-8.027H16.93v9.478c0 2.225 1.209 3.826 3.652 3.826zm16.012-.05c4.466 0 6.095-1.475 6.095-4.226 0-2.501-1.036-3.776-3.454-4.252l-1.802-.35c-.79-.15-.962-.3-.962-.6 0-.275.222-.425.814-.425 1.925 0 3.825.525 4.713.925l-.222-3.776c-.839-.35-2.69-.8-4.738-.8-3.849 0-5.625 1.5-5.625 4.176 0 2.45.962 3.676 3.528 4.201l1.826.375c.74.125.888.276.888.55 0 .3-.246.476-.913.476-2.27 0-4.441-.625-5.428-1.075l.641 4.05c.889.326 2.764.751 4.64.751zm12.681 0c4.466 0 6.094-1.475 6.094-4.226 0-2.501-1.036-3.776-3.454-4.252l-1.801-.35c-.79-.15-.963-.3-.963-.6 0-.275.222-.425.815-.425 1.924 0 3.824.525 4.712.925l-.222-3.776c-.839-.35-2.69-.8-4.737-.8-3.85 0-5.626 1.5-5.626 4.176 0 2.45.962 3.676 3.529 4.201l1.825.375c.74.125.889.276.889.55 0 .3-.247.476-.913.476-2.27 0-4.442-.625-5.429-1.075l.642 4.05c.888.326 2.763.751 4.639.751zm7.819-14.755h5.355v-3h-5.355v3zm0 14.505h5.355V27.488h-5.355v13.004zm10.878.3c1.826 0 2.937-.9 3.258-1.575l.493 1.275h4.688v-8.028c0-3.326-1.9-5.226-6.267-5.226-1.826 0-3.504.25-4.269.45l-.69 4.126c.764-.275 2.343-.625 3.849-.625 1.603 0 2.196.325 2.196 1.225v.05h-2.394c-3.158 0-4.737 1.526-4.737 4.152 0 2.6 1.307 4.176 3.874 4.176zm2.049-3.601c-.691 0-1.136-.3-1.136-1.076 0-.75.395-1.1 1.136-1.1h1.209v.95c0 .9-.47 1.226-1.21 1.226z" fill="#fff"/></svg>
